dist/assets/img/svg/nav-right.svg

<svg width="14" height="24" viewBox="0 0 14 24" fill="none" xmlns="http://www.w3.org/2000/svg">
<path d="M2.77419 23.5251L13.6452 12.8865C13.7742 12.7599 13.8654 12.6227 13.9187 12.4749C13.9729 12.3272 14 12.1689 14 12C14 11.8311 13.9729 11.6728 13.9187 11.5251C13.8654 11.3773 13.7742 11.2401 13.6452 11.1135L2.77419 0.443272C2.47312 0.147757 2.09677 0 1.64516 0C1.19355 0 0.806451 0.158311 0.483871 0.474934C0.16129 0.791557 0 1.16095 0 1.58311C0 2.00528 0.16129 2.37467 0.483871 2.69129L9.96774 12L0.483871 21.3087C0.182796 21.6042 0.0322571 21.9681 0.0322571 22.4004C0.0322571 22.8336 0.193548 23.2084 0.516129 23.5251C0.838709 23.8417 1.21505 24 1.64516 24C2.07527 24 2.45161 23.8417 2.77419 23.5251Z" fill="white"/>
</svg>

<svg width="14" height="24" fill="none" xmlns="http://www.w3.org/2000/svg"><path d="M2.774 23.525l10.871-10.638c.13-.127.22-.264.274-.412.054-.148.081-.306.081-.475 0-.169-.027-.327-.081-.475a1.101 1.101 0 00-.274-.412L2.775.444C2.472.148 2.096 0 1.644 0c-.45 0-.838.158-1.16.475C.16.792 0 1.16 0 1.583c0 .422.161.792.484 1.108L9.968 12 .484 21.309A1.47 1.47 0 00.032 22.4c0 .434.162.808.484 1.125.323.317.699.475 1.13.475.43 0 .806-.158 1.128-.475z" fill="#fff"/></svg>67 0.483871 2.69129L9.96774 12L0.483871 21.3087C0.182796 21.6042 0.0322571 21.9681 0.0322571 22.4004C0.0322571 22.8336 0.193548 23.2084 0.516129 23.5251C0.838709 23.8417 1.21505 24 1.64516 24C2.07527 24 2.45161 23.8417 2.77419 23.5251Z" fill="white"/>
</svg>
